!! J.S. Bach "Partita" BWV 1013 for flauto traverso
!! Dolmetsch suggests a tempo of quarter note equals 72 beats per minute.
!! Third movement: Sarabande
**kern
*M3/4
=1
8a
8b
8cc
8ee
8g#
8a
=2
2f
8e
8f#
=3
8g#
8a
8b
8dd
8ff
8ee
=4
8dd
8b
8cc
8a
4b
=5
8a
8b
8cc
8ee
8g#
8a
=6
4ff
4eeM
4dd
=7
8g
8a
8b
8dd
8f#
8g
=8
4ee
4ddM
8cc
8ee
=9
8gg
8ee
8dd
8cc
8b
8cc
=10
[4g
16g]
16a
16b
16cc
16dd
16ee
8ff
=11
16gg
16ff
16ee
16gg
16ff
16ee
16dd
16ff
16ee
16dd
16cc
16ee
=12
[4a
8a]
16b
16cc
16dd
16ee
16ff
16gg
=13
16aa
16gg
16ff
16aa
16gg
16ff
16ee
16gg
16ff
16ee
16dd
16ff
=14
8bb
16ccc
16ddd
16ccc
16bb
16aa
16gg
16ff
16ee
16ff
16dd
=15
8ee
16dd
16cc
8gg
8aa
8ee
16dd
16cc
=16
2.cc
=17
8ee
8cc
8b
8cc
8aa
8gg
=18
2ee
8dd
8ee
=19
8ff
8dd
8g#
8ee
8bb
8dd
=20
4cc
8b
8cc
4a
=21
8aa
16gg
16ff
8ee
8dd
8cc#
8dd
=22
8bb-
16aa
16gg
8ff
8ee
8aa
8a
=23
16f
16aa
16gg
16ff
8ee
8dd
8cc#
8dd
=24
8g
16bb-
16aa
8gg
16ff
16ee
8ccc#
16bbn
16ccc#
=25
8ddd
16dd
16ee
8ff
8aa
16gg
16ff
16ee
16ff
=26
8dd
8a
8f
8d
8f
8a
=27
8b
8cc
8dd
8ff
8aa
8gg
=28
8ff
8ee
8dd
8cc
8gg#
8aa
=29
8g#
8a
8b
8dd
8ff
8ee
=30
8dd
8cc
8b
8a
8aa
8ccc
=31
8dd
8ccc
8bb
8ddd
8gg#
8aa
=32
8cc
8ccc
8bb
8ddd
8gg#
8aa
=33
8b
16ff
16ee
8dd
8cc
8b
16cc
16dd
=34
4.g#
8f#
4e
=35
8a
8b
8cc
8ee
8g#
8a
=36
4ff
4eeM
4dd
=37
8b
8cc
8dd
8ff
8ee
8dd
=38
8bb
8gg#
8aa
8ff#
8gg#
8bb
=39
8ee
8cc
8b
8a
8g#
8a
=40
[4e
8e]
16f#
16g#
16a
16b
16cc
16dd
=41
16ee
16dd
16cc
16ee
16dd
16cc
16b
16dd
16cc
16b
16a
16cc
=42
[4f#
8f#]
16g#
16a
16b
16cc
16dd
16ee
=43
16ff
16ee
16dd
16ff
16ee
16dd
16cc
16ee
16dd
16cc
16b
16dd
=44
8gg#
16aa
16bb
16aa
16gg#
16ff#
16ee
16ddd
16ccc
16ddd
16bb
=45
16ccc
16bb
16aa
16gg#
8aa
8ee
8cc
16b
16a
=46
2.a;
==
*-
